assets/google-pay.svg

<svg viewBox="0 0 24 16" fill="none" xmlns="http://www.w3.org/2000/svg">
<path d="M0 2C0 0.895431 0.895431 0 2 0H22C23.1046 0 24 0.895431 24 2V14C24 15.1046 23.1046 16 22 16H2C0.89543 16 0 15.1046 0 14V2Z" fill="#E4E5E7"/>
<path d="M11.4587 8.53756V10.8494H10.7201V5.14011H12.6789C12.9127 5.13526 13.1451 5.17644 13.3628 5.26128C13.5805 5.34611 13.7791 5.47292 13.9472 5.63438C14.117 5.78604 14.2521 5.97203 14.3435 6.17986C14.4349 6.38769 14.4804 6.61254 14.477 6.83929C14.4819 7.06726 14.4371 7.29358 14.3456 7.50273C14.2542 7.71188 14.1183 7.89893 13.9472 8.05104C13.6047 8.37539 13.1819 8.53741 12.6789 8.53711H11.4587V8.53756ZM11.4587 5.84302V7.83602H12.6972C12.833 7.84002 12.9681 7.81583 13.0939 7.765C13.2198 7.71417 13.3335 7.63782 13.4279 7.54083C13.5219 7.45015 13.5965 7.34169 13.6475 7.22185C13.6985 7.10202 13.7247 6.97325 13.7247 6.84316C13.7247 6.71308 13.6985 6.58431 13.6475 6.46448C13.5965 6.34464 13.5219 6.23618 13.4279 6.1455C13.3347 6.04647 13.2213 5.96824 13.0954 5.91602C12.9694 5.86379 12.8337 5.83875 12.6972 5.84256H11.4587V5.84302Z" fill="#5F6368"/>
<path d="M16.1789 6.8156C16.7247 6.8156 17.1556 6.96046 17.4715 7.25019C17.7874 7.53991 17.9452 7.93715 17.9449 8.44189V10.8494H17.2385V10.3073H17.2064C16.9006 10.7538 16.4938 10.977 15.9862 10.977C15.5529 10.977 15.1903 10.8494 14.8986 10.5943C14.7586 10.4773 14.6466 10.3306 14.5709 10.1651C14.4952 9.99963 14.4576 9.81944 14.461 9.6377C14.461 9.23348 14.6148 8.91201 14.9224 8.67331C15.2301 8.4346 15.6408 8.31495 16.1545 8.31434C16.5931 8.31434 16.9542 8.39406 17.238 8.5535V8.38586C17.2389 8.26196 17.2119 8.13943 17.1592 8.02715C17.1064 7.91487 17.0292 7.81566 16.933 7.73671C16.7377 7.56173 16.4832 7.46625 16.2201 7.46931C15.8076 7.46931 15.4811 7.64211 15.2408 7.98772L14.5903 7.58091C14.9481 7.0707 15.4776 6.8156 16.1789 6.8156ZM15.2233 9.65364C15.2229 9.74698 15.2448 9.83909 15.2874 9.92229C15.33 10.0055 15.3921 10.0774 15.4683 10.132C15.6316 10.2596 15.8344 10.3272 16.0422 10.3233C16.3538 10.3228 16.6525 10.1996 16.8729 9.98072C17.1176 9.75204 17.2399 9.48372 17.2399 9.17577C17.0096 8.99356 16.6885 8.90245 16.2766 8.90245C15.9766 8.90245 15.7264 8.97427 15.5261 9.11792C15.3238 9.26369 15.2233 9.4409 15.2233 9.65364Z" fill="#5F6368"/>
<path d="M22 6.94317L19.5339 12.5714H18.7715L19.6867 10.6021L18.0651 6.94317H18.8679L20.0399 9.74932H20.0559L21.1959 6.94317H22Z" fill="#5F6368"/>
<path d="M8.47422 8.0392C8.4745 7.81569 8.45547 7.59257 8.41734 7.37228H5.30264V8.63551H7.0866C7.05009 8.83726 6.97283 9.02959 6.85946 9.20089C6.74609 9.37219 6.59897 9.51892 6.42696 9.63224V10.4522H7.49165C8.11505 9.88142 8.47422 9.0373 8.47422 8.0392Z" fill="#4285F4"/>
<path d="M5.30265 11.2444C6.19394 11.2444 6.94441 10.9538 7.49166 10.4527L6.42697 9.63272C6.13064 9.83225 5.74899 9.94613 5.30265 9.94613C4.44118 9.94613 3.70998 9.36941 3.44851 8.59225H2.35172V9.43729C2.62661 9.98052 3.04813 10.4372 3.56922 10.7563C4.09031 11.0754 4.69045 11.2444 5.30265 11.2444Z" fill="#34A853"/>
<path d="M3.44848 8.59224C3.31025 8.18501 3.31025 7.744 3.44848 7.33676V6.49173H2.35169C2.12044 6.94871 2 7.45306 2 7.9645C2 8.47594 2.12044 8.9803 2.35169 9.43728L3.44848 8.59224Z" fill="#FBBC04"/>
<path d="M5.30265 5.98287C5.77366 5.97523 6.22878 6.15196 6.56964 6.47486L7.5123 5.53872C6.91455 4.98117 6.12267 4.67506 5.30265 4.68457C4.69045 4.6846 4.09031 4.8536 3.56922 5.17272C3.04813 5.49183 2.62661 5.94849 2.35172 6.49172L3.44851 7.33675C3.70998 6.55959 4.44118 5.98287 5.30265 5.98287Z" fill="#EA4335"/>
</svg>

<svg xmlns="http://www.w3.org/2000/svg" width="24" height="16" viewBox="0 0 24 16">
  <path fill="#e6e6e6" d="M0 2a2 2 0 0 1 2-2h20a2 2 0 0 1 2 2v12a2 2 0 0 1-2 2H2a2 2 0 0 1-2-2V2Z" />
  <path fill="#5f6368"
    d="M11.459 8.538v2.311h-.739V5.14h1.959a1.782 1.782 0 0 1 1.268.494 1.59 1.59 0 0 1 .53 1.205 1.57 1.57 0 0 1-.53 1.212c-.342.324-.765.486-1.268.486h-1.22Zm0-2.695v1.993h1.238a.982.982 0 0 0 .73-.295.972.972 0 0 0 .22-1.077.972.972 0 0 0-.22-.319.964.964 0 0 0-.73-.302H11.46ZM16.179 6.816c.546 0 .977.144 1.293.434.315.29.473.687.473 1.192v2.407h-.707v-.542h-.032c-.305.447-.712.67-1.22.67-.433 0-.796-.128-1.087-.383a1.222 1.222 0 0 1-.438-.956c0-.405.154-.726.461-.965.308-.238.719-.358 1.232-.359.44 0 .8.08 1.084.24v-.168a.83.83 0 0 0-.305-.65 1.05 1.05 0 0 0-.713-.267c-.412 0-.739.173-.98.519l-.65-.407c.358-.51.888-.765 1.589-.765Zm-.956 2.838a.584.584 0 0 0 .245.478.905.905 0 0 0 .574.191c.312 0 .61-.123.83-.342.246-.229.368-.497.368-.805-.23-.182-.551-.274-.963-.274-.3 0-.55.072-.75.216-.203.146-.304.323-.304.536ZM22 6.943l-2.466 5.628h-.762l.915-1.969-1.622-3.659h.803L20.04 9.75h.016l1.14-2.806H22Z" />
  <path fill="#4285f4"
    d="M8.474 8.04c0-.224-.019-.447-.057-.668H5.303v1.264h1.784a1.512 1.512 0 0 1-.66.996v.82h1.065c.623-.57.982-1.415.982-2.413Z" />
  <path fill="#34a853"
    d="M5.303 11.244c.89 0 1.641-.29 2.189-.791l-1.065-.82c-.296.2-.678.313-1.124.313-.862 0-1.593-.577-1.854-1.354H2.352v.845c.275.544.696 1 1.217 1.32a3.32 3.32 0 0 0 1.734.487Z" />
  <path fill="#fbbc04" d="M3.448 8.592a1.952 1.952 0 0 1 0-1.255v-.845H2.352a3.261 3.261 0 0 0 0 2.945l1.096-.845Z" />
  <path fill="#ea4335"
    d="M5.303 5.983a1.8 1.8 0 0 1 1.267.492l.942-.936a3.186 3.186 0 0 0-2.21-.854 3.32 3.32 0 0 0-1.733.488c-.52.319-.942.775-1.217 1.319l1.097.845c.261-.777.992-1.354 1.854-1.354Z" />
</svg>
